src/icons/aens.svg

<svg viewBox="0 0 40 40" fill="none" xmlns="http://www.w3.org/2000/svg">
<path d="M25 33.3253H9.00001C8.64667 33.3253 8.30667 33.1853 8.05734 32.9347C7.80667 32.6855 7.66667 32.3456 7.66667 31.9924V7.99967C7.66667 7.64645 7.80667 7.30655 8.05734 7.0573C8.30667 6.80671 8.64667 6.66675 9.00001 6.66675H25C26.0613 6.66675 27.0787 7.08795 27.828 7.83839C28.5787 8.5875 29 9.60452 29 10.6655V29.3265C29 30.3875 28.5787 31.4045 27.828 32.1536C27.0787 32.9041 26.0613 33.3253 25 33.3253ZM18.3213 19.996C17.4853 19.9294 16.6453 20.0347 15.8507 20.3039C15.056 20.5732 14.3253 21.0024 13.7027 21.5635C13.08 22.1247 12.5787 22.8072 12.228 23.5696C11.8787 24.3307 11.6867 25.1558 11.6667 25.9942C11.6947 26.1781 11.7827 26.3474 11.9187 26.4754C11.988 26.5687 12.0867 26.634 12.2 26.6606H24.436C24.5093 26.6646 24.5827 26.654 24.652 26.6273C24.7213 26.602 24.784 26.562 24.836 26.5114C24.956 26.3674 25.016 26.1821 25 25.9942C24.8013 22.294 22.2427 19.996 18.3213 19.996ZM18.3333 13.3314C17.8053 13.3314 17.2907 13.4873 16.852 13.7806C16.4133 14.0738 16.072 14.4897 15.8693 14.9775C15.668 15.4641 15.6147 15.9999 15.7173 16.5171C15.82 17.0343 16.0747 17.5088 16.4467 17.882C16.82 18.2552 17.2947 18.5085 17.812 18.6111C18.3307 18.7151 18.8667 18.6618 19.3533 18.4605C19.84 18.2592 20.2573 17.9166 20.5507 17.4781C20.844 17.0396 21 16.5251 21 15.9972C21 15.2908 20.7187 14.6123 20.2187 14.1125C19.7187 13.6126 19.04 13.3314 18.3333 13.3314Z" fill="currentColor"/>
<path opacity="0.44" d="M31.3211 7.83875C30.6727 7.08808 29.794 6.66675 28.8785 6.66675L25.6978 6.66941L26.5753 6.91208C27.0555 7.10941 27.5 7.41475 27.8662 7.83875C28.5146 8.58941 28.8785 9.60675 28.8785 10.6667V29.3334C28.8785 30.3947 28.5146 31.4121 27.8662 32.1614C27.5 32.5854 27.0544 32.8907 26.5753 33.0881L25.6667 33.3121L28.8785 33.3334C29.7952 33.3334 30.6739 32.9121 31.3211 32.1614C31.9683 31.4107 32.3333 30.3934 32.3333 29.3334V10.6667C32.3333 9.60541 31.9694 8.58808 31.3211 7.83875Z" fill="currentColor"/>
</svg>

<svg viewBox="0 0 40 40" fill="none" xmlns="http://www.w3.org/2000/svg"><path d="M25 33.325H9a1.33 1.33 0 0 1-1.333-1.333V8A1.33 1.33 0 0 1 9 6.667h16c1.061 0 2.079.421 2.828 1.171A3.993 3.993 0 0 1 29 10.665v18.662a3.993 3.993 0 0 1-1.172 2.827A3.995 3.995 0 0 1 25 33.325zm-6.679-13.329a6.17 6.17 0 0 0-6.654 5.998.832.832 0 0 0 .252.481c.069.094.168.159.281.186h12.236a.52.52 0 0 0 .216-.034.52.52 0 0 0 .184-.116c.12-.144.18-.329.164-.517-.199-3.7-2.757-5.998-6.679-5.998zm.012-6.665a2.662 2.662 0 0 0-2.464 1.646 2.67 2.67 0 0 0 .578 2.905c.373.373.848.627 1.365.73a2.662 2.662 0 0 0 2.739-1.134 2.661 2.661 0 0 0-.332-3.366c-.5-.5-1.179-.78-1.886-.78z" fill="currentColor"/><path opacity=".44" d="M31.321 7.839c-.648-.75-1.527-1.172-2.443-1.172l-3.18.002.877.243c.48.197.925.503 1.291.927.649.75 1.012 1.768 1.012 2.828v18.666c0 1.062-.363 2.08-1.012 2.828-.366.424-.812.73-1.29.927l-.91.224 3.212.021c.917 0 1.796-.42 2.443-1.172.647-.75 1.012-1.768 1.012-2.828V10.667c0-1.062-.364-2.079-1.012-2.828z" fill="currentColor"/></svg>
